X: 01015
T: CALLI'S GRAF
C: Bob McQuillen Feb. '76
B: Bob's Note Book 1 #15
%R: jig
Z: 2019 John Chambers <jc:trillian.mit.edu>
M: 6/8
L: 1/8
K: G
D \
| GAG GBc | ded def | gfg efg | dBG AFD |\
| GAG GBc | ded def | gfg edB | AGF G2 :|
|: B \
| EFG FGA | GAB cBA | Bee cee | BAG AGF |\
| EFG FGA | GAB cBA | Bee dcB | AGF E2 :|
%%begintext align
%% For Cathy La Roche,
%% a neat Pen-Pal.
%%endtext

%%sep 1 1 500

%%sep 1 1 500

